icons/neutral_fill.svg

<svg width="48" height="48" viewBox="0 0 48 48" fill="none" xmlns="http://www.w3.org/2000/svg">
<path fill-rule="evenodd" clip-rule="evenodd" d="M24 40C32.8366 40 40 32.8366 40 24C40 15.1634 32.8366 8 24 8C15.1634 8 8 15.1634 8 24C8 32.8366 15.1634 40 24 40ZM24 42C33.9411 42 42 33.9411 42 24C42 14.0589 33.9411 6 24 6C14.0589 6 6 14.0589 6 24C6 33.9411 14.0589 42 24 42Z" fill="black"/>
<path d="M20 21C20 23.2091 18.8807 25 17.5 25C16.1193 25 15 23.2091 15 21C15 18.7909 16.1193 17 17.5 17C18.8807 17 20 18.7909 20 21Z" fill="black"/>
<path d="M33 21C33 23.2091 31.8807 25 30.5 25C29.1193 25 28 23.2091 28 21C28 18.7909 29.1193 17 30.5 17C31.8807 17 33 18.7909 33 21Z" fill="black"/>
<path fill-rule="evenodd" clip-rule="evenodd" d="M16 31C16 30.4477 16.4477 30 17 30L31 30C31.5523 30 32 30.4477 32 31C32 31.5523 31.5523 32 31 32L17 32C16.4477 32 16 31.5523 16 31Z" fill="black"/>
</svg>

<svg
  xmlns="http://www.w3.org/2000/svg"
  width="24"
  height="24"
  viewBox="0 0 24 24"
  fill="none"
  stroke="currentColor"
  stroke-width="2"
  stroke-linecap="round"
  stroke-linejoin="round"
>
  <path
    fill-rule="evenodd"
    d="M24 40c8.837 0 16-7.163 16-16S32.837 8 24 8 8 15.163 8 24s7.163 16 16 16m0 2c9.941 0 18-8.059 18-18S33.941 6 24 6 6 14.059 6 24s8.059 18 18 18"
    clip-rule="evenodd"
  />
  <path d="M20 21c0 2.21-1.12 4-2.5 4S15 23.21 15 21s1.12-4 2.5-4 2.5 1.79 2.5 4" />
  <path d="M33 21c0 2.21-1.12 4-2.5 4S28 23.21 28 21s1.12-4 2.5-4 2.5 1.79 2.5 4" />
  <path
    fill-rule="evenodd"
    d="M16 31a1 1 0 0 1 1-1h14a1 1 0 1 1 0 2H17a1 1 0 0 1-1-1"
    clip-rule="evenodd"
  />
</svg>
